material/.icons/material/arrow-decision-outline.svg

<svg xmlns="http://www.w3.org/2000/svg" viewBox="0 0 24 24"><path d="M9.64 13.4C8.63 12.5 7.34 12.03 6 12v3l-4-4 4-4v3c1.67 0 3.3.57 4.63 1.59a7.97 7.97 0 00-.99 1.81M18 15v-3c-.5 0-4.5.16-4.95 4.2 1.56.55 2.38 2.27 1.83 3.83a3.006 3.006 0 01-3.83 1.83c-1.55-.56-2.38-2.27-1.83-3.83.28-.86.98-1.53 1.83-1.83A6.748 6.748 0 0118 10V7l4 4-4 4m-5 4a1 1 0 00-1-1 1 1 0 00-1 1 1 1 0 001 1 1 1 0 001-1m-2-7.88c.58-.66 1.25-1.23 2-1.69V5h3l-4-4-4 4h3v6.12z"/></svg>

<?xml version="1.0" encoding="UTF-8"?><!DOCTYPE svg PUBLIC "-//W3C//DTD SVG 1.1//EN" "http://www.w3.org/Graphics/SVG/1.1/DTD/svg11.dtd"><svg xmlns="http://www.w3.org/2000/svg" xmlns:xlink="http://www.w3.org/1999/xlink" version="1.1" id="mdi-arrow-decision-outline" width="24" height="24" viewBox="0 0 24 24"><path d="M9.64,13.4C8.63,12.5 7.34,12.03 6,12V15L2,11L6,7V10C7.67,10 9.3,10.57 10.63,11.59C10.22,12.15 9.89,12.76 9.64,13.4M18,15V12C17.5,12 13.5,12.16 13.05,16.2C14.61,16.75 15.43,18.47 14.88,20.03C14.33,21.59 12.61,22.41 11.05,21.86C9.5,21.3 8.67,19.59 9.22,18.03C9.5,17.17 10.2,16.5 11.05,16.2C11.34,12.61 14.4,9.88 18,10V7L22,11L18,15M13,19A1,1 0 0,0 12,18A1,1 0 0,0 11,19A1,1 0 0,0 12,20A1,1 0 0,0 13,19M11,11.12C11.58,10.46 12.25,9.89 13,9.43V5H16L12,1L8,5H11V11.12Z" /></svg>
